lib/flags/l/COK.svg

<svg xmlns="http://www.w3.org/2000/svg" fill="none" viewBox="0 0 32 24"><mask id="COK_svg__a" width="32" height="24" x="0" y="0" mask-type="alpha" maskUnits="userSpaceOnUse"><path fill="#fff" d="M0 0H32V24H0z"/></mask><g mask="url(#COK_svg__a)"><path fill="#2E42A5" fill-rule="evenodd" d="M0 0V24H32V0H0Z" clip-rule="evenodd"/><mask id="COK_svg__b" width="32" height="24" x="0" y="0" mask-type="alpha" maskUnits="userSpaceOnUse"><path fill="#fff" fill-rule="evenodd" d="M0 0V24H32V0H0Z" clip-rule="evenodd"/></mask><g mask="url(#COK_svg__b)"><path fill="#2B409A" d="M0 0H18V14H0z"/><mask id="COK_svg__c" width="18" height="14" x="0" y="0" mask-type="alpha" maskUnits="userSpaceOnUse"><path fill="#fff" d="M0 0H18V14H0z"/></mask><g mask="url(#COK_svg__c)"><path fill="#F7FCFF" d="M-2.00427 12.9997L1.95668 14.7369L18.0899 1.88866L20.1792 -0.692871L15.9435 -1.27349L9.36317 4.2632L4.06667 7.99363L-2.00427 12.9997Z"/><path fill="#F50100" d="M-1.46204 14.217L0.555885 15.2251L19.4289 -0.932617H16.5955L-1.46204 14.217Z"/><path fill="#F7FCFF" d="M20.0043 12.9997L16.0433 14.7369L-0.0898743 1.88866L-2.17919 -0.692871L2.05648 -1.27349L8.63683 4.2632L13.9333 7.99363L20.0043 12.9997Z"/><path fill="#F50100" d="M19.8691 13.8733L17.8512 14.8815L9.81489 7.96351L7.43229 7.19059L-2.3802 -0.683947H0.453194L10.2602 7.00368L12.8651 7.9305L19.8691 13.8733Z"/><mask id="COK_svg__d" width="22" height="18" x="-2" y="-2" fill="#000" maskUnits="userSpaceOnUse"><path fill="#fff" d="M-2-2H20V16H-2z"/><path fill-rule="evenodd" d="M9.98451 0H7.98451V6H0V8H7.98451V14H9.98451V8H18V6H9.98451V0Z" clip-rule="evenodd"/></mask><path fill="#F50100" fill-rule="evenodd" d="M9.98451 0H7.98451V6H0V8H7.98451V14H9.98451V8H18V6H9.98451V0Z" clip-rule="evenodd"/><path fill="#F7FCFF" d="M7.98451 0V-1.5H6.48451V0H7.98451ZM9.98451 0H11.4845V-1.5H9.98451V0ZM7.98451 6V7.5H9.48451V6H7.98451ZM0 6V4.5H-1.5V6H0ZM0 8H-1.5V9.5H0V8ZM7.98451 8H9.48451V6.5H7.98451V8ZM7.98451 14H6.48451V15.5H7.98451V14ZM9.98451 14V15.5H11.4845V14H9.98451ZM9.98451 8V6.5H8.48451V8H9.98451ZM18 8V9.5H19.5V8H18ZM18 6H19.5V4.5H18V6ZM9.98451 6H8.48451V7.5H9.98451V6ZM7.98451 1.5H9.98451V-1.5H7.98451V1.5ZM9.48451 6V0H6.48451V6H9.48451ZM0 7.5H7.98451V4.5H0V7.5ZM1.5 8V6H-1.5V8H1.5ZM7.98451 6.5H0V9.5H7.98451V6.5ZM9.48451 14V8H6.48451V14H9.48451ZM9.98451 12.5H7.98451V15.5H9.98451V12.5ZM8.48451 8V14H11.4845V8H8.48451ZM18 6.5H9.98451V9.5H18V6.5ZM16.5 6V8H19.5V6H16.5ZM9.98451 7.5H18V4.5H9.98451V7.5ZM8.48451 0V6H11.4845V0H8.48451Z" mask="url(#COK_svg__d)"/></g><path fill="#fff" fill-rule="evenodd" d="M23.667 13.8551L24.3929 13.3462L25.0953 13.8551L24.8769 12.9495L25.4409 12.3755H24.7231L24.3919 11.6365L24.1095 12.3755H23.2674L23.9121 12.9495L23.667 13.8551ZM26.4798 15.1134L27.2057 14.6045L27.908 15.1134L27.6897 14.2078L28.2537 13.6339H27.5358L27.2047 12.8948L26.9222 13.6339H26.0801L26.7249 14.2078L26.4798 15.1134ZM28.0447 16.9854L27.3189 17.4943L27.5639 16.5887L26.9192 16.0148H27.7613L28.0437 15.2757L28.3749 16.0148H29.0928L28.5287 16.5887L28.7471 17.4943L28.0447 16.9854ZM26.3221 19.7692L27.048 19.2603L27.7503 19.7692L27.532 18.8636L28.096 18.2897H27.3781L27.047 17.5506L26.7645 18.2897H25.9225L26.5672 18.8636L26.3221 19.7692ZM24.4997 20.5064L23.7739 21.0153L24.0189 20.1097L23.3742 19.5358H24.2163L24.4987 18.7967L24.8299 19.5358H25.5478L24.9837 20.1097L25.2021 21.0153L24.4997 20.5064ZM21.4001 19.8087L22.126 19.2998L22.8284 19.8087L22.61 18.9031L23.174 18.3292H22.4562L22.125 17.5901L21.8426 18.3292H21.0005L21.6452 18.9031L21.4001 19.8087ZM20.8597 17.0019L20.1338 17.5108L20.3788 16.6052L19.7341 16.0312H20.5762L20.8586 15.2922L21.1898 16.0312H21.9077L21.3436 16.6052L21.562 17.5108L20.8597 17.0019ZM21.047 15.1598L21.7728 14.6509L22.4752 15.1598L22.2568 14.2542L22.8209 13.6803H22.103L21.7718 12.9412L21.4894 13.6803H20.6473L21.292 14.2542L21.047 15.1598Z" clip-rule="evenodd"/></g></g></svg>

<svg xmlns="http://www.w3.org/2000/svg" fill="none" viewBox="0 0 32 24"><mask id="COK_svg__a" width="32" height="24" x="0" y="0" maskUnits="userSpaceOnUse"><path fill="#fff" d="M0 0h32v24H0z"/></mask><g mask="url(#COK_svg__a)"><path fill="#2E42A5" fill-rule="evenodd" d="M0 0v24h32V0H0z" clip-rule="evenodd"/><mask id="COK_svg__b" width="32" height="24" x="0" y="0" maskUnits="userSpaceOnUse"><path fill="#fff" fill-rule="evenodd" d="M0 0v24h32V0H0z" clip-rule="evenodd"/></mask><g mask="url(#COK_svg__b)"><path fill="#2B409A" d="M0 0h18v14H0z"/><mask id="COK_svg__c" width="18" height="14" x="0" y="0" maskUnits="userSpaceOnUse"><path fill="#fff" d="M0 0h18v14H0z"/></mask><g mask="url(#COK_svg__c)"><path fill="#F7FCFF" d="M-2.004 13l3.96 1.737L18.09 1.889l2.09-2.582-4.236-.58-6.58 5.536-5.297 3.73L-2.004 13z"/><path fill="#F50100" d="M-1.462 14.217l2.018 1.008L19.429-.933h-2.833l-18.058 15.15z"/><path fill="#F7FCFF" d="M20.004 13l-3.96 1.737L-.09 1.889-2.18-.693l4.236-.58 6.58 5.536 5.297 3.73L20.004 13z"/><path fill="#F50100" d="M19.87 13.873l-2.019 1.009-8.036-6.918-2.383-.773L-2.38-.684H.453l9.807 7.688 2.605.927 7.004 5.942z"/><mask id="COK_svg__d" width="22" height="18" x="-2" y="-2" fill="#000" maskUnits="userSpaceOnUse"><path fill="#fff" d="M-2-2h22v18H-2z"/><path fill-rule="evenodd" d="M9.985 0h-2v6H0v2h7.985v6h2V8H18V6H9.985V0z" clip-rule="evenodd"/></mask><path fill="#F50100" fill-rule="evenodd" d="M9.985 0h-2v6H0v2h7.985v6h2V8H18V6H9.985V0z" clip-rule="evenodd"/><path fill="#F7FCFF" d="M7.985 0v-1.5h-1.5V0h1.5zm2 0h1.5v-1.5h-1.5V0zm-2 6v1.5h1.5V6h-1.5zM0 6V4.5h-1.5V6H0zm0 2h-1.5v1.5H0V8zm7.985 0h1.5V6.5h-1.5V8zm0 6h-1.5v1.5h1.5V14zm2 0v1.5h1.5V14h-1.5zm0-6V6.5h-1.5V8h1.5zM18 8v1.5h1.5V8H18zm0-2h1.5V4.5H18V6zM9.985 6h-1.5v1.5h1.5V6zm-2-4.5h2v-3h-2v3zm1.5 4.5V0h-3v6h3zM0 7.5h7.985v-3H0v3zm1.5.5V6h-3v2h3zm6.485-1.5H0v3h7.985v-3zm1.5 7.5V8h-3v6h3zm.5-1.5h-2v3h2v-3zM8.485 8v6h3V8h-3zM18 6.5H9.985v3H18v-3zM16.5 6v2h3V6h-3zM9.985 7.5H18v-3H9.985v3zM8.485 0v6h3V0h-3z" mask="url(#COK_svg__d)"/></g><path fill="#fff" fill-rule="evenodd" d="M23.667 13.855l.726-.509.702.51-.218-.906.564-.574h-.718l-.331-.74-.282.74h-.843l.645.574-.245.905zm2.813 1.258l.726-.508.702.508-.218-.905.564-.574h-.718l-.331-.74-.283.74h-.842l.645.574-.245.905zm1.565 1.872l-.726.51.245-.906-.645-.574h.842l.283-.74.33.74h.719l-.564.574.218.905-.702-.509zm-1.723 2.784l.726-.509.702.51-.218-.906.564-.574h-.718l-.331-.74-.282.74h-.843l.645.574-.245.905zm-1.822.737l-.726.51.245-.906-.645-.574h.842l.283-.74.33.74h.719l-.564.574.218.905-.702-.509zm-3.1-.697l.726-.51.702.51-.218-.906.564-.574h-.718l-.331-.739-.282.74H21l.645.573-.245.906zm-.54-2.807l-.726.509.245-.906-.645-.574h.842l.283-.739.33.74h.719l-.564.573.218.906-.702-.51zm.187-1.842l.726-.51.702.51-.218-.906.564-.574h-.718l-.331-.739-.283.74h-.842l.645.573-.245.906z" clip-rule="evenodd"/></g></g></svg>
